X: 20451
M: C|
L: 1/8
K: D
V: 1 staves=3
|:\
|:\
eAAA fAAA | gAAA fAAA | eAfA gAfA | edcB AGFE |\
V: 2
|:\
|:\
cAAA dAAA | eAAA dAAA | cAdA eAdA | cBAG FEDC |\
V: 3 clef=bass middle=d
|:\
d2z2 d2z2 | A2d2 A2d2 | e2d2 A2A2 | d2d2 A2A2 |\
d2z2 d2z2 | A2d2 A2d2 | e2[d2A2] [d2A2]d2 | ABce Add2 :|
|:\
d2z2 e2z2 | d2z2 G2z2 | f2g2 a2A2 | d2d2 d2z2 :|


